icons/Brisk Light/mimetypes/32/application-illustrator.svg

<?xml version="1.0" encoding="UTF-8" standalone="no"?>
<svg
   xmlns:dc="http://purl.org/dc/elements/1.1/"
   xmlns:cc="http://creativecommons.org/ns#"
   xmlns:rdf="http://www.w3.org/1999/02/22-rdf-syntax-ns#"
   xmlns:svg="http://www.w3.org/2000/svg"
   xmlns="http://www.w3.org/2000/svg"
   xmlns:xlink="http://www.w3.org/1999/xlink"
   xmlns:sodipodi="http://sodipodi.sourceforge.net/DTD/sodipodi-0.dtd"
   xmlns:inkscape="http://www.inkscape.org/namespaces/inkscape"
   width="32px"
   height="32px"
   viewBox="0 0 32 32"
   version="1.1"
   id="svg18"
   sodipodi:docname="application-illustrator.svg"
   inkscape:version="0.92.4 5da689c313, 2019-01-14">
  <metadata
     id="metadata22">
    <rdf:RDF>
      <cc:Work
         rdf:about="">
        <dc:format>image/svg+xml</dc:format>
        <dc:type
           rdf:resource="http://purl.org/dc/dcmitype/StillImage" />
        <dc:title>text-x-javascript</dc:title>
      </cc:Work>
    </rdf:RDF>
  </metadata>
  <sodipodi:namedview
     pagecolor="#1e2023"
     bordercolor="#666666"
     borderopacity="1"
     objecttolerance="10"
     gridtolerance="10"
     guidetolerance="10"
     inkscape:pageopacity="0"
     inkscape:pageshadow="2"
     inkscape:window-width="3840"
     inkscape:window-height="2012"
     id="namedview20"
     showgrid="true"
     inkscape:zoom="27.578125"
     inkscape:cx="-14.202895"
     inkscape:cy="16"
     inkscape:window-x="0"
     inkscape:window-y="0"
     inkscape:window-maximized="1"
     inkscape:current-layer="svg18">
    <inkscape:grid
       type="xygrid"
       id="grid820"
       color="#6e6e6e"
       opacity="0.1254902"
       empcolor="#6e6e6e"
       empopacity="0.25098039" />
  </sodipodi:namedview>
  <!-- Generator: Sketch 40.3 (33839) - http://www.bohemiancoding.com/sketch -->
  <title
     id="title2">text-x-javascript</title>
  <desc
     id="desc4">Created with Sketch.</desc>
  <defs
     id="defs6">
    <linearGradient
       id="b"
       y1="17"
       y2="24"
       x1="47"
       x2="54"
       gradientUnits="userSpaceOnUse"
       gradientTransform="translate(-62,-8.998)">
      <stop
         stop-color="#060606"
         id="stop7" />
      <stop
         offset="1"
         stop-opacity="0"
         id="stop9" />
    </linearGradient>
    <linearGradient
       id="a"
       y1="392.35999"
       y2="365.35999"
       x2="0"
       gradientUnits="userSpaceOnUse"
       gradientTransform="translate(-138.60963,-364.90191)">
      <stop
         stop-color="#ffffff"
         stop-opacity="0"
         id="stop2" />
      <stop
         offset="1"
         stop-color="#ffffff"
         stop-opacity=".2"
         id="stop4" />
    </linearGradient>
    <linearGradient
       id="linearGradient63"
       y1="392.35999"
       y2="365.35999"
       x2="0"
       gradientUnits="userSpaceOnUse"
       gradientTransform="translate(309.57,152.44)">
      <stop
         stop-color="#ffffff"
         stop-opacity="0"
         id="stop59" />
      <stop
         offset="1"
         stop-color="#ffffff"
         stop-opacity=".2"
         id="stop61" />
    </linearGradient>
  </defs>
  <image
     y="2"
     x="2.5000005"
     id="image1000"
     xlink:href="data:image/png;base64,iVBORw0KGgoAAAANSUhEUgAAABsAAAAeCAYAAADdGWXmAAAABHNCSVQICAgIfAhkiAAAAWhJREFU SIntlmFPgzAQhp8Csm666P//k5rolgmD+qHvSYdDC8FvvEmzhPTuaa+X3euIctwqkC83+g1T8aU2 OeABqGbCLLZWfPlbfAkU2ngA9vreZwKdDrgHjoBPYP0UzAPPwKM2Nfc2/wF7EbBS7HV84CoJ8MAO uOgAueqUuCOWs1bOAJxSaHqzI7GcF+Cs4FxZ2e2WOwE7rWA3SzXuyhwFoAU+GBrmSHyWXusMdGPY Etm7NMB7AnwivmOr1a8BuwcsGEp60LdmTiPkAIOAJ2LpekFLwK0JS4EdsXTWZA7mtfgcoHXnzV/X f8AmtcE22AbbYMuVjhibQ0Wy5li6NI/FW84fMHNZnjiDSvJMz1gF0RZ45WsMOPaJnmHwNSy/WU20 BjVxtvUGM9vVEOeP1/dvo7IAVipHq7xXZAtsur5pszmjJaAUGIBP4FX5gz2g2e+awUsucVomG5pW sdZgdhIYOmgtpTY8fAHNF2XFmg89HgAAAABJRU5ErkJggg== "
     preserveAspectRatio="none"
     height="30"
     width="27" />
  <path
     style="fill:#ffad37;fill-opacity:1;fill-rule:evenodd;stroke:none;stroke-width:1"
     inkscape:connector-curvature="0"
     id="path14361"
     d="M 26,29.537 H 6 c -1,0 -1,-1 -1,-1 V 4.5370003 c 0,0 0,-1 1,-1 H 20 L 27,10.537 v 18 c 0,1 -1,1 -1,1 z" />
  <path
     style="color:#000000;opacity:0.15;color-interpolation:sRGB;color-interpolation-filters:linearRGB;fill:#ffffff;color-rendering:auto;image-rendering:auto;shape-rendering:auto;text-rendering:auto"
     d="M 6.0019531 3.5371094 C 5.0050471 3.5371094 5.0019631 4.5290062 5.0019531 4.5351562 L 7 4.5351562 L 7 6.5351562 L 5.0019531 6.5351562 L 5.0019531 7.5351562 L 7 7.5351562 L 7 9.5351562 L 5.0019531 9.5351562 L 5.0019531 10.535156 L 7 10.535156 L 7 12.535156 L 5.0019531 12.535156 L 5.0019531 13.535156 L 7 13.535156 L 7 15.535156 L 5.0019531 15.535156 L 5.0019531 16.535156 L 7 16.535156 L 7 18.535156 L 5.0019531 18.535156 L 5.0019531 19.535156 L 7 19.535156 L 7 21.535156 L 5.0019531 21.535156 L 5.0019531 22.535156 L 7 22.535156 L 7 24.535156 L 5.0019531 24.535156 L 5.0019531 25.535156 L 7 25.535156 L 7 27.535156 L 5.0019531 27.535156 L 5.0019531 28.535156 L 7 28.535156 L 7 29.535156 L 8 29.535156 L 8 28.535156 L 10 28.535156 L 10 29.535156 L 11 29.535156 L 11 28.535156 L 13 28.535156 L 13 29.535156 L 14 29.535156 L 14 28.535156 L 16 28.535156 L 16 29.535156 L 17 29.535156 L 17 28.535156 L 19 28.535156 L 19 29.535156 L 20 29.535156 L 20 28.535156 L 22 28.535156 L 22 29.535156 L 23 29.535156 L 23 28.535156 L 25 28.535156 L 25 29.535156 L 26 29.535156 L 26 28.535156 L 27 28.535156 L 27 27.535156 L 26 27.535156 L 26 25.535156 L 27 25.535156 L 27 24.535156 L 26 24.535156 L 26 22.535156 L 27 22.535156 L 27 21.535156 L 26 21.535156 L 26 19.535156 L 27 19.535156 L 27 18.535156 L 26 18.535156 L 26 16.535156 L 27 16.535156 L 27 15.535156 L 26 15.535156 L 26 13.535156 L 27 13.535156 L 27 12.535156 L 26 12.535156 L 26 10.556641 L 25 10.556641 L 25 12.535156 L 23 12.535156 L 23 10.556641 L 22 10.556641 L 22 12.535156 L 20 12.535156 L 20 10.535156 L 20.841797 10.535156 C 20.010971 10.427288 20 9.5371094 20 9.5371094 L 20 9.5351562 L 20 7.5351562 L 20 6.5351562 L 20 4.5351562 L 20 3.5371094 L 6.0019531 3.5371094 z M 8 4.5351562 L 10 4.5351562 L 10 6.5351562 L 8 6.5351562 L 8 4.5351562 z M 11 4.5351562 L 13 4.5351562 L 13 6.5351562 L 11 6.5351562 L 11 4.5351562 z M 14 4.5351562 L 16 4.5351562 L 16 6.5351562 L 14 6.5351562 L 14 4.5351562 z M 17 4.5351562 L 19 4.5351562 L 19 6.5351562 L 17 6.5351562 L 17 4.5351562 z M 22 5.5371094 L 22 5.5429688 L 23.986328 7.5351562 L 23.998047 7.5351562 L 23 6.5351562 L 22 5.5371094 z M 8 7.5351562 L 10 7.5351562 L 10 9.5351562 L 8 9.5351562 L 8 7.5351562 z M 11 7.5351562 L 13 7.5351562 L 13 9.5351562 L 11 9.5351562 L 11 7.5351562 z M 14 7.5351562 L 16 7.5351562 L 16 9.5351562 L 14 9.5351562 L 14 7.5351562 z M 17 7.5351562 L 19 7.5351562 L 19 9.5351562 L 17 9.5351562 L 17 7.5351562 z M 25 8.5371094 L 25 8.5507812 L 26.978516 10.535156 L 26.998047 10.535156 L 26 9.5351562 L 25 8.5371094 z M 8 10.535156 L 10 10.535156 L 10 12.535156 L 8 12.535156 L 8 10.535156 z M 11 10.535156 L 13 10.535156 L 13 12.535156 L 11 12.535156 L 11 10.535156 z M 14 10.535156 L 16 10.535156 L 16 12.535156 L 14 12.535156 L 14 10.535156 z M 17 10.535156 L 19 10.535156 L 19 12.535156 L 17 12.535156 L 17 10.535156 z M 8 13.535156 L 10 13.535156 L 10 15 L 10 15.535156 L 8.9472656 15.535156 L 8 15.535156 L 8 13.535156 z M 11 13.535156 L 13 13.535156 L 13 15 L 13 15.535156 L 11 15.535156 L 11 15 L 11 13.535156 z M 14 13.535156 L 16 13.535156 L 16 15.535156 L 15.947266 15.535156 L 14 15.535156 L 14 15 L 14 13.535156 z M 17 13.535156 L 19 13.535156 L 19 15.535156 L 17 15.535156 L 17 13.535156 z M 20 13.535156 L 22 13.535156 L 22 15.535156 L 20 15.535156 L 20 13.535156 z M 23 13.535156 L 25 13.535156 L 25 15.535156 L 23 15.535156 L 23 13.535156 z M 8 16.535156 L 8.9472656 16.535156 L 10 16.535156 L 10 18.535156 L 8.9472656 18.535156 L 8 18.535156 L 8 16.535156 z M 11 16.535156 L 13 16.535156 L 13 18.535156 L 11 18.535156 L 11 16.535156 z M 14 16.535156 L 15.947266 16.535156 L 16 16.535156 L 16 18.535156 L 15.947266 18.535156 L 14 18.535156 L 14 16.535156 z M 17 16.535156 L 19 16.535156 L 19 18.535156 L 17 18.535156 L 17 16.535156 z M 20 16.535156 L 22 16.535156 L 22 18.535156 L 20 18.535156 L 20 16.535156 z M 23 16.535156 L 25 16.535156 L 25 18.535156 L 23 18.535156 L 23 16.535156 z M 8 19.535156 L 8.9472656 19.535156 L 10 19.535156 L 10 21.535156 L 8.9472656 21.535156 L 8 21.535156 L 8 19.535156 z M 11 19.535156 L 13 19.535156 L 13 21.535156 L 11 21.535156 L 11 19.535156 z M 14 19.535156 L 15.947266 19.535156 L 16 19.535156 L 16 21.535156 L 15.947266 21.535156 L 14 21.535156 L 14 19.535156 z M 17 19.535156 L 19 19.535156 L 19 21.535156 L 17 21.535156 L 17 19.535156 z M 20 19.535156 L 22 19.535156 L 22 21.535156 L 20 21.535156 L 20 19.535156 z M 23 19.535156 L 25 19.535156 L 25 21.535156 L 23 21.535156 L 23 19.535156 z M 8 22.535156 L 10 22.535156 L 10 24.535156 L 8 24.535156 L 8 23.535156 L 8 22.535156 z M 11 22.535156 L 13 22.535156 L 13 24.535156 L 11 24.535156 L 11 23.535156 L 11 22.535156 z M 14 22.535156 L 16 22.535156 L 16 24.535156 L 14 24.535156 L 14 23.535156 L 14 22.535156 z M 17 22.535156 L 19 22.535156 L 19 24.535156 L 17 24.535156 L 17 23.535156 L 17 22.535156 z M 20 22.535156 L 22 22.535156 L 22 24.535156 L 20 24.535156 L 20 23.535156 L 20 22.535156 z M 23 22.535156 L 25 22.535156 L 25 24.535156 L 23 24.535156 L 23 23.535156 L 23 22.535156 z M 8 25.535156 L 10 25.535156 L 10 27.535156 L 8 27.535156 L 8 26.535156 L 8 25.535156 z M 11 25.535156 L 13 25.535156 L 13 27.535156 L 11 27.535156 L 11 26.535156 L 11 25.535156 z M 14 25.535156 L 16 25.535156 L 16 27.535156 L 14 27.535156 L 14 26.535156 L 14 25.535156 z M 17 25.535156 L 19 25.535156 L 19 27.535156 L 17 27.535156 L 17 26.535156 L 17 25.535156 z M 20 25.535156 L 22 25.535156 L 22 27.535156 L 20 27.535156 L 20 26.535156 L 20 25.535156 z M 23 25.535156 L 25 25.535156 L 25 27.535156 L 23 27.535156 L 23 26.535156 L 23 25.535156 z "
     id="path17" />
  <path
     id="path33"
     d="m 12.75,13.357334 v 2.25 h 0.75 v 1.2375 A 1.1250046,1.1250046 0 0 0 12.75,17.903917 1.1250046,1.1250046 0 0 0 13.5,18.963 v 1.14375 h -0.75 v 2.25 H 15 V 21 a 5.2499962,4.5000006 0 0 0 3.75,1.356442 v -0.75 A 4.4999976,3.750008 0 0 1 14.422853,18.883297 1.1250046,1.1250046 0 0 0 15,17.903317 1.1250046,1.1250046 0 0 0 14.400878,16.911614 4.4999976,3.750008 0 0 1 18.75,14.106441 v -0.75 A 5.2499962,4.5000006 0 0 0 15,14.708489 v -1.35225 z m 0.75,0.75 h 0.75 v 0.75 H 13.5 Z m 0,6.750001 h 0.75 v 0.75 H 13.5 Z"
     inkscape:connector-curvature="0"
     style="color:#000000;color-interpolation:sRGB;color-interpolation-filters:linearRGB;fill:#ffffff;fill-opacity:1;stroke-width:0.75000012;color-rendering:auto;image-rendering:auto;shape-rendering:auto;text-rendering:auto" />
  <path
     style="opacity:0.5;fill:#ffffef;fill-opacity:1;fill-rule:evenodd;stroke:none;stroke-width:1"
     inkscape:connector-curvature="0"
     id="path14363-3"
     d="m 21,10.555667 c -1,0 -1,-1.0186667 -1,-1.0186667 v -6 l 7,7.0186667 z" />
</svg>

<?xml version="1.0" encoding="UTF-8" standalone="no"?>
<svg
   xmlns:dc="http://purl.org/dc/elements/1.1/"
   xmlns:cc="http://creativecommons.org/ns#"
   xmlns:rdf="http://www.w3.org/1999/02/22-rdf-syntax-ns#"
   xmlns:svg="http://www.w3.org/2000/svg"
   xmlns="http://www.w3.org/2000/svg"
   xmlns:xlink="http://www.w3.org/1999/xlink"
   xmlns:sodipodi="http://sodipodi.sourceforge.net/DTD/sodipodi-0.dtd"
   xmlns:inkscape="http://www.inkscape.org/namespaces/inkscape"
   width="32px"
   height="32px"
   viewBox="0 0 32 32"
   version="1.1"
   id="svg18"
   sodipodi:docname="application-illustrator.svg"
   inkscape:version="0.92.4 5da689c313, 2019-01-14">
  <metadata
     id="metadata22">
    <rdf:RDF>
      <cc:Work
         rdf:about="">
        <dc:format>image/svg+xml</dc:format>
        <dc:type
           rdf:resource="http://purl.org/dc/dcmitype/StillImage" />
        <dc:title>text-x-javascript</dc:title>
      </cc:Work>
    </rdf:RDF>
  </metadata>
  <sodipodi:namedview
     pagecolor="#1e2023"
     bordercolor="#666666"
     borderopacity="1"
     objecttolerance="10"
     gridtolerance="10"
     guidetolerance="10"
     inkscape:pageopacity="0"
     inkscape:pageshadow="2"
     inkscape:window-width="3840"
     inkscape:window-height="2012"
     id="namedview20"
     showgrid="true"
     inkscape:zoom="27.578125"
     inkscape:cx="-4.5575697"
     inkscape:cy="16"
     inkscape:window-x="0"
     inkscape:window-y="0"
     inkscape:window-maximized="1"
     inkscape:current-layer="svg18">
    <inkscape:grid
       type="xygrid"
       id="grid820"
       color="#6e6e6e"
       opacity="0.1254902"
       empcolor="#6e6e6e"
       empopacity="0.25098039" />
  </sodipodi:namedview>
  <!-- Generator: Sketch 40.3 (33839) - http://www.bohemiancoding.com/sketch -->
  <title
     id="title2">text-x-javascript</title>
  <desc
     id="desc4">Created with Sketch.</desc>
  <defs
     id="defs6">
    <linearGradient
       id="b"
       y1="17"
       y2="24"
       x1="47"
       x2="54"
       gradientUnits="userSpaceOnUse"
       gradientTransform="translate(-62,-8.998)">
      <stop
         stop-color="#060606"
         id="stop7" />
      <stop
         offset="1"
         stop-opacity="0"
         id="stop9" />
    </linearGradient>
    <linearGradient
       id="a"
       y1="392.35999"
       y2="365.35999"
       x2="0"
       gradientUnits="userSpaceOnUse"
       gradientTransform="translate(-138.60963,-364.90191)">
      <stop
         stop-color="#ffffff"
         stop-opacity="0"
         id="stop2" />
      <stop
         offset="1"
         stop-color="#ffffff"
         stop-opacity=".2"
         id="stop4" />
    </linearGradient>
    <linearGradient
       id="linearGradient63"
       y1="392.35999"
       y2="365.35999"
       x2="0"
       gradientUnits="userSpaceOnUse"
       gradientTransform="translate(309.57,152.44)">
      <stop
         stop-color="#ffffff"
         stop-opacity="0"
         id="stop59" />
      <stop
         offset="1"
         stop-color="#ffffff"
         stop-opacity=".2"
         id="stop61" />
    </linearGradient>
  </defs>
  <g
     id="g887">
    <image
       width="27"
       height="30"
       preserveAspectRatio="none"
       xlink:href="data:image/png;base64,iVBORw0KGgoAAAANSUhEUgAAABsAAAAeCAYAAADdGWXmAAAABHNCSVQICAgIfAhkiAAAAWhJREFU SIntlmFPgzAQhp8Csm666P//k5rolgmD+qHvSYdDC8FvvEmzhPTuaa+X3euIctwqkC83+g1T8aU2 OeABqGbCLLZWfPlbfAkU2ngA9vreZwKdDrgHjoBPYP0UzAPPwKM2Nfc2/wF7EbBS7HV84CoJ8MAO uOgAueqUuCOWs1bOAJxSaHqzI7GcF+Cs4FxZ2e2WOwE7rWA3SzXuyhwFoAU+GBrmSHyWXusMdGPY Etm7NMB7AnwivmOr1a8BuwcsGEp60LdmTiPkAIOAJ2LpekFLwK0JS4EdsXTWZA7mtfgcoHXnzV/X f8AmtcE22AbbYMuVjhibQ0Wy5li6NI/FW84fMHNZnjiDSvJMz1gF0RZ45WsMOPaJnmHwNSy/WU20 BjVxtvUGM9vVEOeP1/dvo7IAVipHq7xXZAtsur5pszmjJaAUGIBP4FX5gz2g2e+awUsucVomG5pW sdZgdhIYOmgtpTY8fAHNF2XFmg89HgAAAABJRU5ErkJggg== "
       id="image1000"
       x="2.5000005"
       y="2" />
    <path
       d="M 26,29.537 H 6 c -1,0 -1,-1 -1,-1 V 4.5370003 c 0,0 0,-1 1,-1 H 20 L 27,10.537 v 18 c 0,1 -1,1 -1,1 z"
       id="path14361"
       inkscape:connector-curvature="0"
       style="fill:#ffad37;fill-opacity:1;fill-rule:evenodd;stroke:none;stroke-width:1" />
    <path
       inkscape:connector-curvature="0"
       id="path17"
       d="m 6.001953,3.5370003 c -0.996906,0 -0.99999,0.9918969 -1,0.9980469 H 7 v 2 H 5.001953 v 1 H 7 v 2 H 5.001953 V 10.535047 H 7 v 2 H 5.001953 v 1 H 7 v 2 H 5.001953 v 1 H 7 v 2 H 5.001953 v 1 H 7 v 2 H 5.001953 v 1 H 7 v 2 H 5.001953 v 1 H 7 v 2 H 5.001953 v 1 H 7 v 1 h 1 v -1 h 2 v 1 h 1 v -1 h 2 v 1 h 1 v -1 h 2 v 1 h 1 v -1 h 2 v 1 h 1 v -1 h 2 v 1 h 1 v -1 h 2 v 1 h 1 v -1 h 1 v -1 h -1 v -2 h 1 v -1 h -1 v -2 h 1 v -1 h -1 v -2 h 1 v -1 h -1 v -2 h 1 v -1 h -1 v -2 h 1 v -1 h -1 v -2 h 0.998047 L 26,9.5350472 25,8.5370003 v 0.9980469 h -2 v -2 h 0.998047 L 23,6.5350472 22,5.5370003 v 0.9980469 h -2 v -2 h 0.998047 L 20,3.5370003 Z M 8,4.5350472 h 2 v 2 H 8 Z m 3,0 h 2 v 2 h -2 z m 3,0 h 2 v 2 h -2 z m 3,0 h 2 v 2 h -2 z m -9,3 h 2 v 2 H 8 Z m 3,0 h 2 v 2 h -2 z m 3,0 h 2 v 2 h -2 z m 3,0 h 2 v 2 h -2 z m 3,0 h 2 v 2 H 20 Z M 8,10.535047 h 2 v 2 H 8 Z m 3,0 h 2 v 2 h -2 z m 3,0 h 2 v 2 h -2 z m 3,0 h 2 v 2 h -2 z m 3,0 h 2 v 2 h -2 z m 3,0 h 2 v 2 h -2 z m -15,3 h 2 v 1.464844 0.535156 H 8.947266 8 Z m 3,0 h 2 v 1.464844 0.535156 h -2 v -0.535156 z m 3,0 h 2 v 2 H 15.947266 14 v -0.535156 z m 3,0 h 2 v 2 h -2 z m 3,0 h 2 v 2 h -2 z m 3,0 h 2 v 2 h -2 z m -15,3 H 8.947266 10 v 2 H 8.947266 8 Z m 3,0 h 2 v 2 h -2 z m 3,0 H 15.947266 16 v 2 H 15.947266 14 Z m 3,0 h 2 v 2 h -2 z m 3,0 h 2 v 2 h -2 z m 3,0 h 2 v 2 h -2 z m -15,3 H 8.947266 10 v 2 H 8.947266 8 Z m 3,0 h 2 v 2 h -2 z m 3,0 H 15.947266 16 v 2 H 15.947266 14 Z m 3,0 h 2 v 2 h -2 z m 3,0 h 2 v 2 h -2 z m 3,0 h 2 v 2 h -2 z m -15,3 h 2 v 2 H 8 v -1 z m 3,0 h 2 v 2 h -2 v -1 z m 3,0 h 2 v 2 h -2 v -1 z m 3,0 h 2 v 2 h -2 v -1 z m 3,0 h 2 v 2 h -2 v -1 z m 3,0 h 2 v 2 h -2 v -1 z m -15,3 h 2 v 2 H 8 v -1 z m 3,0 h 2 v 2 h -2 v -1 z m 3,0 h 2 v 2 h -2 v -1 z m 3,0 h 2 v 2 h -2 v -1 z m 3,0 h 2 v 2 h -2 v -1 z m 3,0 h 2 v 2 h -2 v -1 z"
       style="color:#000000;opacity:0.15;color-interpolation:sRGB;color-interpolation-filters:linearRGB;fill:#ffffff;color-rendering:auto;image-rendering:auto;shape-rendering:auto;text-rendering:auto" />
    <path
       d="m 21,10.555667 c -1,0 -1,-1.0186667 -1,-1.0186667 v -6 l 7,7.0186667 z"
       id="path14363"
       inkscape:connector-curvature="0"
       style="fill:#ffda77;fill-opacity:1;fill-rule:evenodd;stroke:none;stroke-width:1" />
    <path
       style="color:#000000;color-interpolation:sRGB;color-interpolation-filters:linearRGB;fill:#ffffff;fill-opacity:1;stroke-width:0.75000012;color-rendering:auto;image-rendering:auto;shape-rendering:auto;text-rendering:auto"
       inkscape:connector-curvature="0"
       d="m 12.75,13.357334 v 2.25 h 0.75 v 1.2375 A 1.1250046,1.1250046 0 0 0 12.75,17.903917 1.1250046,1.1250046 0 0 0 13.5,18.963 v 1.14375 h -0.75 v 2.25 H 15 V 21 a 5.2499962,4.5000006 0 0 0 3.75,1.356442 v -0.75 A 4.4999976,3.750008 0 0 1 14.422853,18.883297 1.1250046,1.1250046 0 0 0 15,17.903317 1.1250046,1.1250046 0 0 0 14.400878,16.911614 4.4999976,3.750008 0 0 1 18.75,14.106441 v -0.75 A 5.2499962,4.5000006 0 0 0 15,14.708489 v -1.35225 z m 0.75,0.75 h 0.75 v 0.75 H 13.5 Z m 0,6.750001 h 0.75 v 0.75 H 13.5 Z"
       id="path33" />
  </g>
</svg>
